mobile/apps/auth/assets/custom-icons/icons/filen.svg

<svg xmlns="http://www.w3.org/2000/svg" fill="none" viewBox="0 0 500 500"><path fill="#fff" fill-rule="evenodd" d="M250 0C111.938 0 0 111.938 0 250s111.938 250 250 250 250-111.938 250-250S388.062 0 250 0ZM116.826 77.287h155.877a30.44 30.44 0 0 1 25.852-14.285c16.837 0 30.524 13.633 30.524 30.524 0 16.891-13.687 30.469-30.524 30.469-11.079 0-20.801-5.92-26.124-14.773H99.989v298.175c0 .326 0 .543-.054.869 15.37 14.556 32.805 26.885 51.814 36.498V315.175c0-.272.054-.489.054-.76 0-.272.054-.489.109-.761.054-.271.108-.489.163-.76.054-.272.108-.489.163-.761.054-.271.163-.488.217-.76.054-.272.163-.489.271-.76.109-.272.218-.489.272-.706.109-.272.217-.489.326-.706.109-.218.271-.435.326-.707.108-.271.271-.434.38-.651.163-.218.272-.435.38-.652.163-.217.326-.38.435-.652.163-.217.326-.38.434-.597.163-.217.326-.38.489-.598.163-.217.326-.38.489-.543l.543-.543c.217-.163.38-.326.597-.489.218-.163.381-.326.598-.489.217-.162.38-.325.597-.434.217-.163.435-.326.652-.38a3.96 3.96 0 0 1 .652-.38c.271-.109.434-.272.706-.326.271-.055.434-.218.706-.326.271-.109.489-.217.706-.326.271-.109.489-.163.76-.272.272-.108.489-.163.761-.217.271-.054.488-.163.76-.217.272-.054.489-.109.76-.163.272-.054.489-.109.761-.109.271 0 .489-.054.76-.108.272 0 .489-.055.761-.055h53.877a30.44 30.44 0 0 1 25.853-14.284c16.837 0 30.524 13.633 30.524 30.524 0 16.837-13.633 30.523-30.524 30.523-11.08 0-20.802-5.92-26.124-14.773H183.63v123.724c0 .706-.054 1.412-.163 2.118 21.074 6.626 43.45 10.265 66.587 10.265 20.748 0 40.843-2.878 59.853-8.309V294.536c-8.527-5.377-14.176-14.881-14.176-25.744 0-16.837 13.632-30.523 30.524-30.523 16.836 0 30.523 13.632 30.523 30.523 0 11.134-5.974 20.91-14.936 26.233V447.86c14.665-6.789 28.46-15.207 41.169-24.984V268.249c0-.272.054-.489.054-.76 0-.272.055-.489.109-.761.054-.271.109-.489.163-.76.054-.272.109-.489.163-.761.054-.271.163-.488.217-.76.109-.271.163-.489.272-.76.108-.272.163-.489.271-.761.109-.271.218-.488.326-.706.109-.217.272-.434.326-.706.109-.271.272-.434.38-.652.109-.217.272-.434.38-.651.163-.218.326-.435.435-.652.109-.217.326-.38.434-.597.163-.218.326-.381.489-.598.163-.217.326-.38.543-.543.218-.163.326-.326.543-.543.218-.163.381-.326.598-.489.217-.163.38-.326.597-.489.218-.163.381-.326.652-.434.217-.163.435-.326.652-.38.217-.109.434-.272.652-.381.217-.163.434-.271.706-.326.271-.108.434-.217.706-.325.271-.109.489-.218.706-.326.271-.109.489-.217.76-.272.272-.108.489-.163.761-.217a4.04 4.04 0 0 0 .76-.217c.271-.055.489-.109.76-.163.272-.055.489-.055.761-.109.271-.054.488-.054.76-.054s.489-.054.76-.054h69.52V250c0-54.584-20.041-104.497-53.226-142.733v68.651c0 .271-.054.489-.054.815 0 .325-.055.488-.109.76s-.108.489-.163.76c-.054.272-.108.489-.163.761-.054.271-.163.489-.217.76-.109.272-.163.489-.272.76-.108.272-.217.489-.325.761-.109.271-.218.489-.326.706-.109.271-.272.434-.326.706-.054.272-.272.434-.38.706-.163.272-.272.435-.381.652-.162.217-.325.434-.434.651-.163.218-.326.381-.489.598-.163.217-.326.38-.489.597a2.542 2.542 0 0 1-.543.543 2.57 2.57 0 0 0-.543.544c-.217.217-.38.325-.597.488-.218.163-.381.326-.598.489-.217.163-.38.326-.652.435-.217.163-.434.326-.651.38-.272.163-.435.271-.706.38-.272.109-.435.272-.706.326a8.726 8.726 0 0 0-.706.326c-.272.108-.489.217-.761.326-.271.108-.489.163-.76.271a4.033 4.033 0 0 1-.761.218c-.271.054-.488.108-.76.162-.272.055-.489.109-.76.163-.272.055-.489.055-.815.109-.326.054-.489.054-.815.054H183.685v32.425c8.907 5.322 14.827 15.044 14.827 26.178 0 16.837-13.633 30.524-30.524 30.524-16.891 0-30.415-13.687-30.415-30.578a30.445 30.445 0 0 1 14.176-25.798v-49.533c0-.272.054-.489.054-.761 0-.271.054-.488.109-.76.054-.271.108-.489.163-.76.054-.272.108-.489.163-.761.054-.271.163-.488.217-.76.054-.272.163-.489.271-.76.109-.272.218-.489.272-.706a8.92 8.92 0 0 1 .326-.707c.109-.217.271-.434.326-.706.108-.271.271-.434.38-.706.163-.271.272-.434.38-.651.163-.218.326-.435.435-.652.163-.217.326-.38.434-.598.163-.217.326-.38.489-.597.163-.217.326-.38.489-.543l.543-.543c.217-.218.38-.326.597-.489.218-.163.381-.326.598-.489.217-.163.38-.326.597-.434.217-.163.435-.326.652-.381.217-.163.434-.271.652-.38.271-.108.434-.271.706-.326.271-.054.434-.217.706-.326.271-.108.489-.217.706-.325.271-.109.489-.218.76-.272.272-.054.489-.163.761-.217.271-.055.488-.163.76-.217.272-.055.489-.109.76-.163.272-.055.489-.109.761-.109.271 0 .489-.054.76-.054.272 0 .489-.055.761-.055h215.728V78.807c0-.489 0-.977.055-1.466-36.824-28.568-82.935-45.46-133.066-45.46-50.13 0-96.404 16.946-133.228 45.406ZM31.881 250c0-44.482 13.307-85.868 36.172-120.302v240.658C45.189 335.868 31.882 294.482 31.882 250Zm433.413 34.923h-50.51v107.864c26.015-29.871 43.939-66.913 50.51-107.864Z" clip-rule="evenodd" style="mix-blend-mode:difference"/></svg>

<svg width="500" height="500" viewBox="0 0 500 500" fill="none" xmlns="http://www.w3.org/2000/svg">
<g style="mix-blend-mode:difference">
<path fill-rule="evenodd" clip-rule="evenodd" d="M250 0C111.938 0 0 111.938 0 250C0 388.062 111.938 500 250 500C388.062 500 500 388.062 500 250C500 111.938 388.062 0 250 0ZM116.826 77.2866H272.703C278.08 68.7052 287.639 63.0024 298.555 63.0024C315.392 63.0024 329.079 76.6348 329.079 93.526C329.079 110.417 315.392 123.995 298.555 123.995C287.476 123.995 277.754 118.075 272.431 109.222H99.9891V407.397C99.9891 407.723 99.9891 407.94 99.9348 408.266C115.305 422.822 132.74 435.151 151.749 444.764V315.935C151.749 315.664 151.749 315.446 151.749 315.175C151.749 314.903 151.803 314.686 151.803 314.415C151.803 314.143 151.857 313.926 151.912 313.654C151.966 313.383 152.02 313.165 152.075 312.894C152.129 312.622 152.183 312.405 152.238 312.133C152.292 311.862 152.401 311.645 152.455 311.373C152.509 311.101 152.618 310.884 152.726 310.613C152.835 310.341 152.944 310.124 152.998 309.907C153.107 309.635 153.215 309.418 153.324 309.201C153.433 308.983 153.595 308.766 153.65 308.494C153.758 308.223 153.921 308.06 154.03 307.843C154.193 307.625 154.302 307.408 154.41 307.191C154.573 306.974 154.736 306.811 154.845 306.539C155.008 306.322 155.171 306.159 155.279 305.942C155.442 305.725 155.605 305.562 155.768 305.344C155.931 305.127 156.094 304.964 156.257 304.801C156.42 304.638 156.583 304.475 156.8 304.258C157.017 304.095 157.18 303.932 157.397 303.769C157.615 303.606 157.778 303.443 157.995 303.28C158.212 303.118 158.375 302.955 158.592 302.846C158.809 302.683 159.027 302.52 159.244 302.466C159.461 302.303 159.678 302.194 159.896 302.086C160.167 301.977 160.33 301.814 160.602 301.76C160.873 301.705 161.036 301.542 161.308 301.434C161.579 301.325 161.797 301.217 162.014 301.108C162.285 300.999 162.503 300.945 162.774 300.836C163.046 300.728 163.263 300.673 163.535 300.619C163.806 300.565 164.023 300.456 164.295 300.402C164.567 300.348 164.784 300.293 165.055 300.239C165.327 300.185 165.544 300.13 165.816 300.13C166.087 300.13 166.305 300.076 166.576 300.022C166.848 300.022 167.065 299.967 167.337 299.967H221.214C226.591 291.386 236.15 285.683 247.067 285.683C263.904 285.683 277.591 299.316 277.591 316.207C277.591 333.044 263.958 346.73 247.067 346.73C235.987 346.73 226.265 340.81 220.943 331.957H183.63V455.681C183.63 456.387 183.576 457.093 183.467 457.799C204.541 464.425 226.917 468.064 250.054 468.064C270.802 468.064 290.897 465.186 309.907 459.755V294.536C301.38 289.159 295.731 279.655 295.731 268.792C295.731 251.955 309.363 238.269 326.255 238.269C343.091 238.269 356.778 251.901 356.778 268.792C356.778 279.926 350.804 289.702 341.842 295.025V447.86C356.507 441.071 370.302 432.653 383.011 422.876V269.009C383.011 268.738 383.011 268.521 383.011 268.249C383.011 267.977 383.065 267.76 383.065 267.489C383.065 267.217 383.12 267 383.174 266.728C383.228 266.457 383.283 266.239 383.337 265.968C383.391 265.696 383.446 265.479 383.5 265.207C383.554 264.936 383.663 264.719 383.717 264.447C383.826 264.176 383.88 263.958 383.989 263.687C384.097 263.415 384.152 263.198 384.26 262.926C384.369 262.655 384.478 262.438 384.586 262.22C384.695 262.003 384.858 261.786 384.912 261.514C385.021 261.243 385.184 261.08 385.292 260.862C385.401 260.645 385.564 260.428 385.672 260.211C385.835 259.993 385.998 259.776 386.107 259.559C386.216 259.342 386.433 259.179 386.541 258.962C386.704 258.744 386.867 258.581 387.03 258.364C387.193 258.147 387.356 257.984 387.573 257.821C387.791 257.658 387.899 257.495 388.116 257.278C388.334 257.115 388.497 256.952 388.714 256.789C388.931 256.626 389.094 256.463 389.311 256.3C389.529 256.137 389.692 255.974 389.963 255.866C390.18 255.703 390.398 255.54 390.615 255.486C390.832 255.377 391.049 255.214 391.267 255.105C391.484 254.942 391.701 254.834 391.973 254.779C392.244 254.671 392.407 254.562 392.679 254.454C392.95 254.345 393.168 254.236 393.385 254.128C393.656 254.019 393.874 253.911 394.145 253.856C394.417 253.748 394.634 253.693 394.906 253.639C395.177 253.585 395.394 253.53 395.666 253.422C395.937 253.367 396.155 253.313 396.426 253.259C396.698 253.204 396.915 253.204 397.187 253.15C397.458 253.096 397.675 253.096 397.947 253.096C398.219 253.096 398.436 253.042 398.707 253.042H468.227C468.227 252.064 468.227 250.978 468.227 250C468.227 195.416 448.186 145.503 415.001 107.267V175.103C415.001 175.375 415.001 175.592 415.001 175.918C415.001 176.189 414.947 176.407 414.947 176.733C414.947 177.058 414.892 177.221 414.838 177.493C414.784 177.765 414.73 177.982 414.675 178.253C414.621 178.525 414.567 178.742 414.512 179.014C414.458 179.285 414.349 179.503 414.295 179.774C414.186 180.046 414.132 180.263 414.023 180.534C413.915 180.806 413.806 181.023 413.698 181.295C413.589 181.566 413.48 181.784 413.372 182.001C413.263 182.272 413.1 182.435 413.046 182.707C412.992 182.979 412.774 183.141 412.666 183.413C412.503 183.685 412.394 183.848 412.285 184.065C412.123 184.282 411.96 184.499 411.851 184.716C411.688 184.934 411.525 185.097 411.362 185.314C411.199 185.531 411.036 185.694 410.873 185.911C410.71 186.129 410.547 186.292 410.33 186.454C410.113 186.617 409.95 186.78 409.787 186.998C409.57 187.215 409.407 187.323 409.19 187.486C408.972 187.649 408.809 187.812 408.592 187.975C408.375 188.138 408.212 188.301 407.94 188.41C407.723 188.573 407.506 188.736 407.289 188.79C407.017 188.953 406.854 189.061 406.583 189.17C406.311 189.279 406.148 189.442 405.877 189.496C405.605 189.605 405.388 189.713 405.171 189.822C404.899 189.93 404.682 190.039 404.41 190.148C404.139 190.256 403.921 190.311 403.65 190.419C403.378 190.528 403.161 190.582 402.889 190.637C402.618 190.691 402.401 190.745 402.129 190.799C401.857 190.854 401.64 190.908 401.369 190.962C401.097 191.017 400.88 191.017 400.554 191.071C400.228 191.125 400.065 191.125 399.739 191.125C399.468 191.125 399.251 191.125 398.925 191.125C398.762 191.125 398.599 191.125 398.49 191.125H183.685V223.55C192.592 228.872 198.512 238.594 198.512 249.728C198.512 266.565 184.879 280.252 167.988 280.252C151.097 280.252 137.573 266.565 137.573 249.674C137.573 238.812 143.222 229.253 151.749 223.876V175.103C151.749 174.832 151.749 174.614 151.749 174.343C151.749 174.071 151.803 173.854 151.803 173.582C151.803 173.311 151.857 173.094 151.912 172.822C151.966 172.551 152.02 172.333 152.075 172.062C152.129 171.79 152.183 171.573 152.238 171.301C152.292 171.03 152.401 170.813 152.455 170.541C152.509 170.269 152.618 170.052 152.726 169.781C152.835 169.509 152.944 169.292 152.998 169.075C153.107 168.803 153.215 168.586 153.324 168.368C153.433 168.151 153.595 167.934 153.65 167.662C153.758 167.391 153.921 167.228 154.03 166.956C154.193 166.685 154.302 166.522 154.41 166.305C154.573 166.087 154.736 165.87 154.845 165.653C155.008 165.436 155.171 165.273 155.279 165.055C155.442 164.838 155.605 164.675 155.768 164.458C155.931 164.241 156.094 164.078 156.257 163.915C156.42 163.752 156.583 163.589 156.8 163.372C157.017 163.154 157.18 163.046 157.397 162.883C157.615 162.72 157.778 162.557 157.995 162.394C158.212 162.231 158.375 162.068 158.592 161.96C158.809 161.797 159.027 161.634 159.244 161.579C159.461 161.416 159.678 161.308 159.896 161.199C160.167 161.091 160.33 160.928 160.602 160.873C160.873 160.819 161.036 160.656 161.308 160.547C161.579 160.439 161.797 160.33 162.014 160.222C162.285 160.113 162.503 160.004 162.774 159.95C163.046 159.896 163.263 159.787 163.535 159.733C163.806 159.678 164.023 159.57 164.295 159.516C164.567 159.461 164.784 159.407 165.055 159.353C165.327 159.298 165.544 159.244 165.816 159.244C166.087 159.244 166.305 159.19 166.576 159.19C166.848 159.19 167.065 159.135 167.337 159.135H383.065V78.8073C383.065 78.3185 383.065 77.8297 383.12 77.3409C346.296 48.7725 300.185 31.8814 250.054 31.8814C199.924 31.8814 153.65 48.8269 116.826 77.2866ZM31.8814 250C31.8814 205.518 45.1879 164.132 68.0535 129.698V370.356C45.1879 335.868 31.8814 294.482 31.8814 250ZM465.294 284.923H414.784V392.787C440.799 362.916 458.723 325.874 465.294 284.923Z" fill="white"/>
</g>
</svg>
